X:1
T:[ID 7-126]
T:[ID 7-126]
T:Bezeichnung standardisiert: March March
T:Urheber unbekannt Datum in der hier transkribierten schriftlichen Quelle: 1776 - 1791
C:Urheber unbekannt
C:Datum in der hier transkribierten schriftlichen Quelle: 1776 - 1791
L:1/8
M:2/4
K:D
V:1 treble 
V:1
 d2 a/g/f/e/ | dA/G/ FE | DABc | d2 e2 | fd de/f/ | eAAe | fd d/e/f/d/ | eAAe | f2 ^g2 | %9
 a^g/f/ ed | c2 B2 | AA/A/ A/c/B/^G/ | A2 A,2 :: e2 e2 | e/d/c/B/ Ag/f/ | dB Bc/d/ | cF Ff/e/ | %17
 dB B/c/d/B/ | cF Ff/e/ | d2 c2 | B4 | A2 B2 A3 A | df/a/ g/f/g/e/ | f/g/a/f/ df/a/ | ge e/f/g/e/ | %25
 fd d (3f/g/a/ | ge e/f/g/e/ | fe e/f/g/e/ | fddA | B/c/d/B/ c/d/e/c/ | d/e/f/d/ e/f/g/e/ | %31
 f/g/a/b/ f/e/d/c/ | dd/d/ d/f/e/c/ | d2 D2 :| %34

